X: 33336
T: Queen Mary, The
R: waltz
M: 3/4
K: Gmajor
B,6|D6|G6|B6|d6-|d2 c3 G|B6|A6|
B,6|D6|G4 B2|e4 B2|d6-|d2 c3 G|B6|A6|
B6-|B2 e3 B|d6|c6|^c6-|^c2 f3 ^c|e6|d6|
g6|g4- gf|e6|c6|d2 ^c2 d2|d2 c2 F2|G6-|G6||
|:B,3 D GB|.d2 z2 .d2|.e2 z2 .e2|F6|B,3 D GB|.d2 z2 .d2|.e2 z2 .e2|A6|
B,3 D GB|d2 ^c2 d2|f3 e cA|E6|1 E3 F Ac|f4 e2|e3 d cA|F2 E2 D2:|
2 e3 d cA|E4 F2|G2 G2 G2|g6||
B,6|D6|B6|G6|F6-|F4 E2|C6-|C2 D2 C2|
B,6|D6|B6|G6|F6-|F2 G3 ^G|A6-|A4- A^A|
B6|F6|A2 G3 F|E6|A6|E6|G2 F2 E2|D6|
D2 E2 F2|G2 A2 B2|.e4 .d2|E6|B4 A2|d4 B2|G6-|G6||
{Bc}.d4 d2|e4 B2|d3 c AF|D6|{Bc}.d4 d2|e4 B2|d3 c AF|D6|
G2 F2 G2|e4 B2|d4 c2|d4 c2|B4 d2|B4 A2|G4 f2|g2 B2 c2||
|:d>d d4|e>e e4|d>d d4|B2 D2 G2|B>B B4|d>d A3 D|G>G G2 G2|G2 B2 d2|
g>g g4|e6|d>d d4|G6|1 B6-|B2 A2 ^G2|A>A A4|A2 B2 c2:|
2 E6-|E2 F2 D2|G6-|G6||
B,3 D GB|.d2 z2 .d2|.e2 z2 .e2|F6|B,3 D GB|.d2 z2 .d2|.e2 z2 .e2|A6|
B,3 D GB|d2 ^c2 d2|f3 e cA|E6|e3 d cA|E4 F2|G2 B2 d2|g6||

